static/assets/img/icons/theme/home/stairs.svg

<svg height="24" viewBox="0 0 24 24" width="24" xmlns="http://www.w3.org/2000/svg"><g fill="none" fill-rule="evenodd"><path d="m0 0h24v24h-24z" opacity="0"/><path d="m21 5.5v12c0 .8284271-.6715729 1.5-1.5 1.5h-15c-.82842712 0-1.5-.6715729-1.5-1.5v-3c0-.8284271.67157288-1.5 1.5-1.5h4.5v-3.5c0-.82842712.67157288-1.5 1.5-1.5h4.5v-2.5c0-.82842712.6715729-1.5 1.5-1.5h3c.8284271 0 1.5.67157288 1.5 1.5z" fill="#000" fill-rule="nonzero"/></g></svg>

<svg width="24px" height="24px" viewBox="0 0 24 24" version="1.1" xmlns="http://www.w3.org/2000/svg" xmlns:xlink="http://www.w3.org/1999/xlink">
    <title>Icon For Stairs</title>
    <g stroke="none" stroke-width="1" fill="none" fill-rule="evenodd">
        <rect opacity="0" x="0" y="0" width="24" height="24"></rect>
        <path d="M21,5.5 L21,17.5 C21,18.3284271 20.3284271,19 19.5,19 L4.5,19 C3.67157288,19 3,18.3284271 3,17.5 L3,14.5 C3,13.6715729 3.67157288,13 4.5,13 L9,13 L9,9.5 C9,8.67157288 9.67157288,8 10.5,8 L15,8 L15,5.5 C15,4.67157288 15.6715729,4 16.5,4 L19.5,4 C20.3284271,4 21,4.67157288 21,5.5 Z" fill="#000000" fill-rule="nonzero"></path>
    </g>
</svg>
